X:34
T:National Anthem(untitled). WHG.034
R:air
S:W.H.Giles MS,Bampton,Oxfordshire,1839p31
O:England
H:donated by Mrs W.R.Kettlewell to VWML,Apr 1927.
A:Bampton, Oxfordshire
Z:PJHeadford – VMP 2009
M:3/4
L:1/8
Q:1/4=120
K:F
f2f2 g>f|e3f g2|a2a2 b2|a3g f2|g2f2 e2|f6:|
|:c’2c’2 c’2|c’3b a2|b2b2 b2|b3a g2|
a2 bagf|a3b c’2|((3d’c’b) a2 g2|f6|]

